icons/svg/old_road_shields/h_pri_shield8.svg

<svg width="67" height="17" viewBox="0 0 67 17" fill="none" xmlns="http://www.w3.org/2000/svg">
<g clip-path="url(#clip0)">
<path fill-rule="evenodd" clip-rule="evenodd" d="M7.829 0.00100708H58.601C62.915 0.00100708 66.429 3.52101 66.429 7.84301V8.73001C66.429 13.05 62.915 16.57 58.601 16.57H7.829C3.514 16.569 0 13.05 0 8.72901V7.84301C0 3.52001 3.514 0.00100708 7.829 0.00100708Z" fill="#E79268"/>
<path fill-rule="evenodd" clip-rule="evenodd" d="M8.17201 1.05899H58.314C62.058 1.05899 65.115 4.12099 65.115 7.86999V8.64299C65.115 12.391 62.058 15.454 58.314 15.454H8.17201C4.42901 15.454 1.37201 12.392 1.37201 8.64299V7.86999C1.37201 4.12199 4.42801 1.05899 8.17201 1.05899Z" fill="white"/>
<path fill-rule="evenodd" clip-rule="evenodd" d="M8.91501 2.43201H57.515C60.572 2.43201 63.058 4.92201 63.058 7.98501V8.58501C63.058 11.647 60.572 14.138 57.515 14.138H8.91501C5.85701 14.138 3.37201 11.648 3.37201 8.58501V7.98501C3.37201 4.92301 5.85701 2.43201 8.91501 2.43201Z" fill="#E79268"/>
</g>
<defs>
<clipPath id="clip0">
<path d="M0 0H66.428V16.57H0V0Z" fill="white"/>
</clipPath>
</defs>
</svg>

<?xml version="1.0" encoding="utf-8"?>
<!-- Generator: Adobe Illustrator 16.0.4, SVG Export Plug-In . SVG Version: 6.00 Build 0)  -->
<!DOCTYPE svg PUBLIC "-//W3C//DTD SVG 1.1//EN" "http://www.w3.org/Graphics/SVG/1.1/DTD/svg11.dtd">
<svg version="1.1" id="Слой_1" xmlns="http://www.w3.org/2000/svg" xmlns:xlink="http://www.w3.org/1999/xlink" x="0px" y="0px"
	 width="66.428px" height="16.57px" viewBox="0 0 66.428 16.57" enable-background="new 0 0 66.428 16.57" xml:space="preserve">
<path fill-rule="evenodd" clip-rule="evenodd" fill="#E79268" d="M7.829,0.001h50.772c4.314,0,7.828,3.52,7.828,7.842v0.887
	c0,4.32-3.514,7.84-7.828,7.84H7.829C3.514,16.569,0,13.05,0,8.729V7.843C0,3.52,3.514,0.001,7.829,0.001L7.829,0.001z"/>
<path fill-rule="evenodd" clip-rule="evenodd" fill="#FFFFFF" d="M8.172,1.059h50.142c3.744,0,6.801,3.062,6.801,6.811v0.773
	c0,3.748-3.057,6.811-6.801,6.811H8.172c-3.743,0-6.8-3.062-6.8-6.811V7.87C1.372,4.122,4.428,1.059,8.172,1.059L8.172,1.059z"/>
<path fill-rule="evenodd" clip-rule="evenodd" fill="#E79268" d="M8.915,2.432h48.6c3.057,0,5.543,2.49,5.543,5.553v0.6
	c0,3.062-2.486,5.553-5.543,5.553h-48.6c-3.058,0-5.543-2.49-5.543-5.553v-0.6C3.372,4.923,5.857,2.432,8.915,2.432L8.915,2.432z"/>
</svg>
